X: 33485
T: Raggle Taggle Gypsies, The
R: polka
M: 2/4
K: Dminor
|:dc|B2A2|G2dc|B2A2|G2d2|g2g2|{g}a2g2|f2d2|d2e2|
f2f2|{f}g2de|fe dc|B2GA|~B3c|df dc|BG AF|G2:|


